svgs/oneshot.svg

<svg xmlns="http://www.w3.org/2000/svg" viewBox="0 0 192 192"><path fill="none" stroke="#000" stroke-linecap="round" stroke-linejoin="round" stroke-width="8" d="M81.671 170.531c-8.316-1.799-11.849-3.104-19.653-7.256-18.657-9.929-31.932-26.797-37.46-47.599-1.721-6.475-2.001-9.116-2.047-19.354-.046-10.046.216-12.891 1.716-18.637 3.703-14.191 10.454-26.119 20.43-36.099 8.848-8.85 18.034-14.454 29.75-18.148 6.821-2.15 20.111-3.998 23.215-3.227 3.234.802 5.459 3.373 5.459 6.307 0 5.655-1.987 6.953-12.113 7.909-4.062.384-9.622 1.417-12.356 2.296-19.579 6.298-35.142 22.905-40.674 43.401-2.256 8.365-2.232 23.35.053 31.832 2.854 10.596 8.173 19.932 16.072 28.209 12.171 12.754 31.163 19.594 48.191 17.359 14.295-1.877 26.332-7.947 36.157-18.233 8.976-9.399 13.897-19.382 16.366-33.205.827-4.634 1.793-7.67 2.789-8.769 3.063-3.38 8.456-2.907 10.991.963 1.198 1.828 1.236 2.667.393 8.503-2.408 16.658-9.306 30.716-21.084 42.968-16.914 17.595-43.027 25.792-66.199 20.779Zm-8.903-29.059c-3.945-1.632-5.364-7.462-2.637-10.838 1.347-1.667 2.154-1.835 10.514-2.188l9.055-.382.199-32.318c.11-17.774-.062-32.314-.382-32.314-.32.001-3.163 1.721-6.317 3.822-6.529 4.35-8.792 4.693-12.175 1.844-1.852-1.558-2.348-2.576-2.329-4.78.015-1.54.467-3.383 1.008-4.095 1.123-1.477 22.872-15.708 25.65-16.782 2.703-1.046 6.756.544 8.123 3.187.959 1.856 1.133 8.32 1.133 42.005v39.811h8.462c4.654 0 9.156.372 10.005.826.849.455 2.028 1.987 2.621 3.406 1.239 2.967.646 5.27-1.963 7.623-1.611 1.453-2.892 1.538-25.512 1.689-13.099.087-24.554-.146-25.455-.519Z"/></svg>

<svg
    xmlns="http://www.w3.org/2000/svg"
    viewBox="0 0 192 192"
    id="vector">
    <path
        id="path"
        d="M 81.671 170.531 C 73.355 168.732 69.822 167.427 62.018 163.275 C 43.361 153.346 30.086 136.478 24.558 115.676 C 22.837 109.201 22.557 106.56 22.511 96.322 C 22.465 86.276 22.727 83.431 24.227 77.685 C 27.93 63.494 34.681 51.566 44.657 41.586 C 53.505 32.736 62.691 27.132 74.407 23.438 C 81.228 21.288 94.518 19.44 97.622 20.211 C 100.856 21.013 103.081 23.584 103.081 26.518 C 103.081 32.173 101.094 33.471 90.968 34.427 C 86.906 34.811 81.346 35.844 78.612 36.723 C 59.033 43.021 43.47 59.628 37.938 80.124 C 35.682 88.489 35.706 103.474 37.991 111.956 C 40.845 122.552 46.164 131.888 54.063 140.165 C 66.234 152.919 85.226 159.759 102.254 157.524 C 116.549 155.647 128.586 149.577 138.411 139.291 C 147.387 129.892 152.308 119.909 154.777 106.086 C 155.604 101.452 156.57 98.416 157.566 97.317 C 160.629 93.937 166.022 94.41 168.557 98.28 C 169.755 100.108 169.793 100.947 168.95 106.783 C 166.542 123.441 159.644 137.499 147.866 149.751 C 130.952 167.346 104.839 175.543 81.667 170.53 Z M 72.768 141.472 C 68.823 139.84 67.404 134.01 70.131 130.634 C 71.478 128.967 72.285 128.799 80.645 128.446 L 89.7 128.064 L 89.899 95.746 C 90.009 77.972 89.837 63.432 89.517 63.432 C 89.197 63.433 86.354 65.153 83.2 67.254 C 76.671 71.604 74.408 71.947 71.025 69.098 C 69.173 67.54 68.677 66.522 68.696 64.318 C 68.711 62.778 69.163 60.935 69.704 60.223 C 70.827 58.746 92.576 44.515 95.354 43.441 C 98.057 42.395 102.11 43.985 103.477 46.628 C 104.436 48.484 104.61 54.948 104.61 88.633 L 104.61 128.444 L 113.072 128.444 C 117.726 128.444 122.228 128.816 123.077 129.27 C 123.926 129.725 125.105 131.257 125.698 132.676 C 126.937 135.643 126.344 137.946 123.735 140.299 C 122.124 141.752 120.843 141.837 98.223 141.988 C 85.124 142.075 73.669 141.842 72.768 141.469 Z"
        fill="none"
        stroke="#000000"
        stroke-width="8"
        stroke-linecap="round"
        stroke-linejoin="round"/>
</svg>
